src/assets/header/header_nav/team.svg

<svg xmlns="http://www.w3.org/2000/svg" xmlns:xlink="http://www.w3.org/1999/xlink" preserveAspectRatio="xMidYMid" width="175" height="189" viewBox="0 0 175 189">
  <defs>
    <style>
      .cls-1, .cls-2 {
        fill: #fff;
        fill-rule: evenodd;
      }

      .cls-1 {
        stroke: #fff;
        stroke-linejoin: round;
        stroke-width: 4px;
        fill-opacity: 0.1;
      }
    </style>
  </defs>
  <g>
    <path d="m67.378998,180.807007c-13.413002,-8.057007 -26.963001,-15.880005 -40.648003,-23.468002c-13.684,-7.587997 -20.391001,-19.205002 -20.120001,-34.850006c0.271,-15.644997 0.271,-31.291 0,-46.935997c-0.271,-15.646 6.436,-27.262001 20.120001,-34.850002c13.685001,-7.587997 27.235001,-15.410999 40.648003,-23.467999c13.413994,-8.058001 26.827995,-8.058001 40.241997,0c13.414001,8.056999 26.963005,15.880001 40.648003,23.467999c13.685013,7.588001 20.391006,19.204002 20.12001,34.850002c-0.271011,15.644997 -0.271011,31.291 0,46.935997c0.270996,15.645004 -6.434998,27.262009 -20.12001,34.850006c-13.684998,7.587997 -27.234001,15.410995 -40.648003,23.468002c-13.414001,8.056992 -26.828003,8.056992 -40.241997,0z" class="cls-1" id="svg_7" fill="black"/>
    <path d="m113.441002,92.586998c-0.349998,-0.231995 -6.733002,-4.418999 -16.226006,-6.471001c3.482002,-4.415001 5.718002,-10.348 6.668007,-14.297997c1.317993,-5.473999 0.806999,-16.184006 -4.450005,-22.857002c-3.072998,-3.900997 -7.373001,-5.961998 -12.432999,-5.961998c-5.059998,0 -9.360001,2.061001 -12.432999,5.961998c-5.257004,6.672997 -5.767998,17.383003 -4.450005,22.857002c0.950005,3.949997 3.185005,9.882996 6.668007,14.297997c-9.493004,2.052002 -15.876003,6.239006 -16.226006,6.471001c-1.283997,0.856003 -1.855999,2.451004 -1.408997,3.926003c0.445999,1.476997 1.807999,2.487 3.349995,2.487l49.000004,0c1.542,0 2.903999,-1.010002 3.349998,-2.487c0.446999,-1.474998 -0.125,-3.07 -1.408997,-3.926003zm-18.973999,-8.639999l-0.573006,0.725998c-4.172997,4.794006 -9.614998,4.794006 -13.787994,0l-0.573006,-0.725998c-4.874001,-6.177002 -7.292,-14.344002 -6.250999,-22.136997c0.955002,-7.489002 5.247002,-15.311001 13.718002,-15.311001c8.471001,0 12.763,7.821999 13.718002,15.311001c1.035995,7.796001 -1.374001,15.958996 -6.250999,22.136997zm-31.967003,11.552002c0.241001,-0.160004 6.170998,-4.048004 15.025002,-5.961998l4.348,-0.942001c1.549995,1.020996 3.253998,1.653999 5.126999,1.653999c1.873001,0 3.577003,-0.633003 5.126999,-1.653999l4.348,0.942001c8.785004,1.897995 14.693001,5.743996 15.025002,5.961998l-49,0z" class="cls-2" id="svg_8"/>
  </g>
</svg>

<svg xmlns="http://www.w3.org/2000/svg" xmlns:xlink="http://www.w3.org/1999/xlink" preserveAspectRatio="xMidYMid" width="175" height="189" viewBox="0 0 175 189">
  <defs>
    <style>
      .cls-1, .cls-2 {
        fill: #fff;
        fill-rule: evenodd;
      }

      .cls-1 {
        stroke: #fff;
        stroke-linejoin: round;
        stroke-width: 4px;
        fill-opacity: 0.1;
      }
    </style>
  </defs>
  <g>
    <path d="M71.842,180.807 C58.429,172.750 44.879,164.927 31.194,157.339 C17.510,149.751 10.803,138.134 11.074,122.489 C11.345,106.844 11.345,91.198 11.074,75.553 C10.803,59.907 17.510,48.291 31.194,40.703 C44.879,33.115 58.429,25.292 71.842,17.235 C85.256,9.177 98.670,9.177 112.084,17.235 C125.498,25.292 139.047,33.115 152.732,40.703 C166.417,48.291 173.123,59.907 172.852,75.553 C172.581,91.198 172.581,106.844 172.852,122.489 C173.123,138.134 166.417,149.751 152.732,157.339 C139.047,164.927 125.498,172.750 112.084,180.807 C98.670,188.864 85.256,188.864 71.842,180.807 Z" class="cls-1"/>
    <path d="M113.441,92.587 C113.091,92.355 106.708,88.168 97.215,86.116 C100.697,81.701 102.933,75.768 103.883,71.818 C105.201,66.344 104.690,55.634 99.433,48.961 C96.360,45.060 92.060,42.999 87.000,42.999 C81.940,42.999 77.640,45.060 74.567,48.961 C69.310,55.634 68.799,66.344 70.117,71.818 C71.067,75.768 73.302,81.701 76.785,86.116 C67.292,88.168 60.909,92.355 60.559,92.587 C59.275,93.443 58.703,95.038 59.150,96.513 C59.596,97.990 60.958,99.000 62.500,99.000 L111.500,99.000 C113.042,99.000 114.404,97.990 114.850,96.513 C115.297,95.038 114.725,93.443 113.441,92.587 ZM94.467,83.947 L93.894,84.673 C89.721,89.467 84.279,89.467 80.106,84.673 L79.533,83.947 C74.659,77.770 72.241,69.603 73.282,61.810 C74.237,54.321 78.529,46.499 87.000,46.499 C95.471,46.499 99.763,54.321 100.718,61.810 C101.754,69.606 99.344,77.769 94.467,83.947 ZM62.500,95.499 C62.741,95.339 68.671,91.451 77.525,89.537 L81.873,88.595 C83.423,89.616 85.127,90.249 87.000,90.249 C88.873,90.249 90.577,89.616 92.127,88.595 L96.475,89.537 C105.260,91.435 111.168,95.281 111.500,95.499 L62.500,95.499 Z" class="cls-2"/>
  </g>
</svg>
